X:1583
T:Don't know
O:england
M:6/8
L:1/8
R:Jig
K:G
D|:~G3 B2 G|BcA B2 D|~G3 BAG|~F3 AFD|~G3 B2 G|BcA B2 g|fed cAF|1AGF G2
D:|2AGF G2 c|
|:BAG AFD|~D3 AFD|~D3 AFD|EFG ABc|BAG AFD|~D3 AFD|ded cAF|1AGF G2
c:|2AGF G2 D|
|:GBd gba|gdB ecA|dBG cAG|~F3 AFD|GBd gba|gdB ecA|fed cAF|1AGF G2
D:|2AGF G2 c|
|BAG Afd|Afd AFD|EFG ABc|


